src/symbols/arrow/2934.svg

<svg id="emoji" viewBox="0 0 72 72" xmlns="http://www.w3.org/2000/svg">
  <g id="grid">
    <path fill="#b3b3b3" d="M68,4V68H4V4H68m4-4H0V72H72V0Z"/>
    <path fill="none" stroke="#00a5ff" stroke-miterlimit="10" stroke-width="0.1" d="M12.923,10.9583H59.0769A1.9231,1.9231,0,0,1,61,12.8814V59.0352a1.9231,1.9231,0,0,1-1.9231,1.9231H12.9231A1.9231,1.9231,0,0,1,11,59.0352V12.8813A1.923,1.923,0,0,1,12.923,10.9583Z"/>
    <rect x="16" y="4" rx="2.2537" width="40" height="64" fill="none" stroke="#00a5ff" stroke-miterlimit="10" stroke-width="0.1"/>
    <rect x="16" y="4" rx="2.2537" width="40" height="64" transform="translate(72) rotate(90)" fill="none" stroke="#00a5ff" stroke-miterlimit="10" stroke-width="0.1"/>
    <circle cx="36" cy="36" r="29" fill="none" stroke="#00a5ff" stroke-miterlimit="10" stroke-width="0.1"/>
  </g>
  <g id="color">
    <path id="_x2934__xFE0F__1_" fill="#3F3F3F" stroke="none" stroke-linecap="round" stroke-linejoin="round" stroke-miterlimit="10" stroke-width="2" d="M40.1841,12L26.1294,26.8587l3.7285,3.413l7.5107-7.9438v16.4924c0,10.5232-5.7598,15.6386-17.6094,15.6386h-1V60h1	c14.9902,0,23.2461-7.522,23.2461-21.1797V22.3331l7.5078,7.9386l3.7275-3.413L40.1841,12z"/>
  </g>
  <g id="hair"/>
  <g id="skin"/>
  <g id="skin-shadow"/>
  <g id="line">
    <path id="_x2934__xFE0F__1_" fill="none" stroke="#000000" stroke-linecap="round" stroke-linejoin="round" stroke-miterlimit="10" stroke-width="2" d="M40.1841,12L26.1294,26.8587l3.7285,3.413l7.5107-7.9438v16.4924c0,10.5232-5.7598,15.6386-17.6094,15.6386h-1V60h1	c14.9902,0,23.2461-7.522,23.2461-21.1797V22.3331l7.5078,7.9386l3.7275-3.413L40.1841,12z"/>
  </g>
</svg>

<svg viewBox="0 0 72 72" xmlns="http://www.w3.org/2000/svg"><path fill="#b3b3b3" d="M68 4v64H4V4h64m4-4H0v72h72V0z"/><path fill="none" stroke="#00a5ff" stroke-miterlimit="10" stroke-width=".1" d="M12.923 10.958h46.154A1.923 1.923 0 0161 12.881v46.154a1.923 1.923 0 01-1.923 1.923H12.923A1.923 1.923 0 0111 59.035V12.881a1.923 1.923 0 011.923-1.923z"/><rect x="16" y="4" rx="2.254" width="40" height="64" fill="none" stroke="#00a5ff" stroke-miterlimit="10" stroke-width=".1"/><rect x="16" y="4" rx="2.254" width="40" height="64" transform="rotate(90 36 36)" fill="none" stroke="#00a5ff" stroke-miterlimit="10" stroke-width=".1"/><circle cx="36" cy="36" r="29" fill="none" stroke="#00a5ff" stroke-miterlimit="10" stroke-width=".1"/><path d="M40.184 12L26.13 26.859l3.729 3.413 7.51-7.944V38.82c0 10.524-5.76 15.639-17.609 15.639h-1V60h1c14.99 0 23.246-7.522 23.246-21.18V22.333l7.508 7.939 3.728-3.413L40.184 12z" stroke-linecap="round" stroke-miterlimit="10" stroke-width="6" stroke="#fff" fill="none" stroke-linejoin="round"/><path fill="#3F3F3F" d="M40.184 12L26.13 26.859l3.729 3.413 7.51-7.944V38.82c0 10.524-5.76 15.639-17.609 15.639h-1V60h1c14.99 0 23.246-7.522 23.246-21.18V22.333l7.508 7.939 3.728-3.413L40.184 12z"/><path fill="none" stroke="#000" stroke-linecap="round" stroke-linejoin="round" stroke-miterlimit="10" stroke-width="2" d="M40.184 12L26.13 26.859l3.729 3.413 7.51-7.944V38.82c0 10.524-5.76 15.639-17.609 15.639h-1V60h1c14.99 0 23.246-7.522 23.246-21.18V22.333l7.508 7.939 3.728-3.413L40.184 12z"/></svg>
